Origami/16x16/apps/gns3.svg

<svg width="16" height="16" version="1.1" viewBox="0 0 16 16" xmlns="http://www.w3.org/2000/svg">
 <path d="m8 0a8 8 0 0 0 -8 8 8 8 0 0 0 8 8 8 8 0 0 0 8 -8 8 8 0 0 0 -8 -8z" style="fill:#685d8d"/>
 <path d="m7.1770731 13.9488c-0.684664-0.130271-1.4137308-0.446375-2.024416-0.87773-0.6857684-0.484387-1.3945416-1.33676-1.7353068-2.086884-0.3424356-0.753808-0.4811088-1.6652524-0.3900988-2.563976 0.06885-0.6798676 0.1471564-0.9954812 0.3813232-1.536916 0.649628-1.5020452 1.92043-2.5375068 3.6040488-2.9366124 0.2754676-0.0653 0.4664272-0.1422812 0.58452-0.2356348 0.1750444-0.1383772 0.1755968-0.139998 0.2810056-0.822266 0.1315972-0.8517731 0.1296288-0.8452349 0.2645156-0.8790252 0.18122-0.045398 1.0281784 0.075359 1.4423532 0.2056463 0.6665671 0.2096841 1.1427221 0.4825717 1.7106641 0.9803957 0.175158 0.1535324 0.341773 0.27915 0.370252 0.27915 0.171504 0 0.647842 0.223822 0.840347 0.4105636 0.574064 0.5568744 0.651453 1.2588044 0.213838 1.9394876-0.117439 0.1826672-0.102515 0.2724132-0.102515 0.507988 0 0.157368-0.02699 0.3213744-0.06001 0.364458-0.04839 0.063165-0.363128 0.097584-1.291504 0.1777408-0.845935 0.073038-1.170102 0.1181476-1.222114 0.1700628-0.1546081 0.1543148 0.01528 0.1867024 1.658657 0.316234 1.536697 0.121122 1.389145 0.163366 1.272367 0.2797076-0.02509 0.024988-0.412365 0.2000624-1.349697 0.3890468l-1.7042379 0.3436136-1.0708976-0.4130076c-0.5889952-0.2271512-1.089334-0.4130048-1.1118652-0.4130048-0.070235 0-0.5859164 0.8560176-0.5688796 0.9443232 0.02112 0.109444 0.2937016 0.2210576 0.5740528 0.2594108 0.1936444 0.026504 0.2476664 0.011952 0.4478976-0.12041 0.4461884-0.2949852 0.8458304-0.2953408 1.0939932-8.8e-4 0.1516692 0.1799076 0.1568104 0.3021256 0.016828 0.3999916-0.1398644 0.097778-0.2412392 0.094098-0.4475088-0.01624-0.2897228-0.1549904-0.47368 0.0473-0.3686248 0.3250964 0.067824 0.1793544 0.029424 0.27694-0.1089812 0.27694-0.076918 0-0.1320768-0.047675-0.1857368-0.1605388-0.0761792-0.1602328-0.0771316-0.2405472-0.4975376-0.268946-0.454794-0.03072-0.7266948-0.0445964-1.0109488-0.2237024-0.2246352-0.14154-0.434308-0.38755-0.434308-0.5095784 0-0.116768 0.2224824-0.5599124 0.4509472-0.8982052 0.212194-0.3142024 0.2187172-0.3904948 0.033388-0.3904948-0.09853 0-0.178778 0.045937-0.2720432 0.155728-0.163988 0.1930376-0.5483408 0.9906388-0.5483408 1.1379024 0 0.2030532 0.1551776 0.427484 0.5682104 0.6989772 0.3272632 0.2151124 0.4270752 0.229024 0.4972192 0.3879216 0.1053564 0.2386624 0.1755768 0.5333764 0.2157608 0.9055724 0.033368 0.309042 0.1005796 0.22916 0.223642 0.01328 0.1252612-0.219736 0.4712904-0.263009 0.4712904-0.05894 0 0.04908-0.053651 0.117898-0.1192232 0.152926-0.2167336 0.115772-0.20159 0.311591 0.033828 0.437343 0.069703 0.03723 0.1388188 0.02012 0.3005372-0.07449 0.1155076-0.06757 0.2427464-0.122844 0.2827552-0.122844 0.094659 0 0.2222048 0.183602 0.2222048 0.319862 0 0.303814-0.2392528 0.494714-0.6200148 0.494714-0.4543712 0-0.802658-0.244142-0.99136-0.694922-0.1007024-0.240561-0.3797216-0.560618-0.542074-0.734858-0.1605408-0.172292-0.3029116-0.2020962-0.4372544-0.182777-0.150194 0.0216-0.2240396 0.163672-0.2248424 0.528932-0.00144 0.706018 0.278554 1.656056 1.0806804 2.051388 1.3175536 0.649366 2.5820052 0.656854 3.9437799 0.02336 1.005066-0.467557 1.351553-1.325627 1.407697-2.137229 0.02062-0.298286 0.0083-0.377144-0.08775-0.5625425-0.199667-0.3852704-0.820359-0.608598-1.243035-0.4170852-0.253398 0.114812-0.396628 0.3376536-0.39687 0.6174597-1.43e-4 0.17328 0.02734 0.235913 0.163045 0.37135 0.129499 0.129256 0.201683 0.162915 0.349368 0.162915 0.224325 0 0.377455-0.09732 0.420122-0.267006 0.04766-0.189541-0.04501-0.265702-0.303864-0.249733-0.195549 0.01207-0.2225 0.0018-0.235736-0.09117-0.01989-0.1395921 0.189347-0.2747585 0.415449-0.2683617 0.133426 0.00376 0.20865 0.043946 0.330204 0.1763336 0.188646 0.2054611 0.206451 0.4161531 0.05947 0.7037231-0.134261 0.262677-0.34103 0.379399-0.67016 0.378311-0.468849-0.0014-0.847551-0.262095-0.958023-0.659107-0.06622-0.237993-0.06302-0.333059 0.02068-0.6143695 0.242726-0.8158068 1.614809-0.9830184 2.267548-0.349822 0.314734 0.3053092 0.47412 0.6518205 0.44466 1.2013455-0.06387 1.19125-0.836226 2.19686-2.207272 2.869036-0.8120969 0.398144-1.2681853 0.504806-2.2563197 0.527674-0.5627128 0.01303-0.922816-0.0014-1.1597676-0.0465z" style="fill:#34bae3"/>
 <circle cx="9" cy="5" r="1" style="fill:#ffffff"/>
 <circle cx="8.778" cy="4.811" r=".25" style="fill:#5e5e5e"/>
 <path d="m12.578192 4.4525108c0.090824 0.3255864-0.11033 0.6602484-0.44929 0.7474892l-0.328902-1.1790524c0.33896-0.08724 0.687368 0.1059768 0.778192 0.4315632z" style="fill:#ffffff"/>
</svg>

<svg xmlns="http://www.w3.org/2000/svg" width="16" height="16" version="1.1" viewBox="0 0 16 16">
 <path style="fill:#685d8d" d="M 8,0 A 8,8 0 0 0 0,8 8,8 0 0 0 8,16 8,8 0 0 0 16,8 8,8 0 0 0 8,0 Z"/>
 <path style="fill:#34bae3" d="M 7.1770731,13.9488 C 6.4924091,13.818529 5.7633423,13.502425 5.1526571,13.07107 4.4668887,12.586683 3.7581155,11.73431 3.4173503,10.984186 3.0749147,10.230378 2.9362415,9.3189336 3.0272515,8.42021 3.0961015,7.7403424 3.1744079,7.4247288 3.4085747,6.883294 4.0582027,5.3812488 5.3290047,4.3457872 7.0126235,3.9466816 7.2880911,3.8813816 7.4790507,3.8044004 7.5971435,3.7110468 7.7721879,3.5726696 7.7727403,3.5710488 7.8781491,2.8887808 8.0097463,2.0370077 8.0077779,2.0435459 8.1426647,2.0097556 c 0.18122,-0.045398 1.0281784,0.075359 1.4423532,0.2056463 0.6665671,0.2096841 1.1427221,0.4825717 1.7106641,0.9803957 0.175158,0.1535324 0.341773,0.27915 0.370252,0.27915 0.171504,0 0.647842,0.223822 0.840347,0.4105636 0.574064,0.5568744 0.651453,1.2588044 0.213838,1.9394876 -0.117439,0.1826672 -0.102515,0.2724132 -0.102515,0.507988 0,0.157368 -0.02699,0.3213744 -0.06001,0.364458 -0.04839,0.063165 -0.363128,0.097584 -1.291504,0.1777408 -0.845935,0.073038 -1.170102,0.1181476 -1.222114,0.1700628 -0.1546081,0.1543148 0.01528,0.1867024 1.658657,0.316234 1.536697,0.121122 1.389145,0.163366 1.272367,0.2797076 -0.02509,0.024988 -0.412365,0.2000624 -1.349697,0.3890468 L 9.9210651,8.3738504 8.8501675,7.9608428 C 8.2611723,7.7336916 7.7608335,7.547838 7.7383023,7.547838 c -0.070235,0 -0.5859164,0.8560176 -0.5688796,0.9443232 0.02112,0.109444 0.2937016,0.2210576 0.5740528,0.2594108 0.1936444,0.026504 0.2476664,0.011952 0.4478976,-0.12041 0.4461884,-0.2949852 0.8458304,-0.2953408 1.0939932,-8.8e-4 0.1516692,0.1799076 0.1568104,0.3021256 0.016828,0.3999916 -0.1398644,0.097778 -0.2412392,0.094098 -0.4475088,-0.01624 -0.2897228,-0.1549904 -0.47368,0.0473 -0.3686248,0.3250964 0.067824,0.1793544 0.029424,0.27694 -0.1089812,0.27694 -0.076918,0 -0.1320768,-0.047675 -0.1857368,-0.1605388 C 8.1151635,9.2952984 8.1142111,9.214984 7.6938051,9.1865852 7.2390111,9.1558652 6.9671103,9.1419888 6.6828563,8.9628828 c -0.2246352,-0.14154 -0.434308,-0.38755 -0.434308,-0.5095784 0,-0.116768 0.2224824,-0.5599124 0.4509472,-0.8982052 0.212194,-0.3142024 0.2187172,-0.3904948 0.033388,-0.3904948 -0.09853,0 -0.178778,0.045937 -0.2720432,0.155728 -0.163988,0.1930376 -0.5483408,0.9906388 -0.5483408,1.1379024 0,0.2030532 0.1551776,0.427484 0.5682104,0.6989772 0.3272632,0.2151124 0.4270752,0.229024 0.4972192,0.3879216 0.1053564,0.2386624 0.1755768,0.5333764 0.2157608,0.9055724 0.033368,0.309042 0.1005796,0.22916 0.223642,0.01328 0.1252612,-0.219736 0.4712904,-0.263009 0.4712904,-0.05894 0,0.04908 -0.053651,0.117898 -0.1192232,0.152926 -0.2167336,0.115772 -0.20159,0.311591 0.033828,0.437343 0.069703,0.03723 0.1388188,0.02012 0.3005372,-0.07449 0.1155076,-0.06757 0.2427464,-0.122844 0.2827552,-0.122844 0.094659,0 0.2222048,0.183602 0.2222048,0.319862 0,0.303814 -0.2392528,0.494714 -0.6200148,0.494714 -0.4543712,0 -0.802658,-0.244142 -0.99136,-0.694922 C 6.8966471,10.677074 6.6176279,10.357017 6.4552755,10.182777 6.2947347,10.010485 6.1523639,9.9806808 6.0180211,10 c -0.150194,0.0216 -0.2240396,0.163672 -0.2248424,0.528932 -0.00144,0.706018 0.278554,1.656056 1.0806804,2.051388 1.3175536,0.649366 2.5820052,0.656854 3.9437799,0.02336 1.005066,-0.467557 1.351553,-1.325627 1.407697,-2.137229 0.02062,-0.298286 0.0083,-0.377144 -0.08775,-0.5625425 -0.199667,-0.3852704 -0.820359,-0.608598 -1.243035,-0.4170852 -0.253398,0.114812 -0.396628,0.3376536 -0.39687,0.6174597 -1.43e-4,0.17328 0.02734,0.235913 0.163045,0.37135 0.129499,0.129256 0.201683,0.162915 0.349368,0.162915 0.224325,0 0.377455,-0.09732 0.420122,-0.267006 0.04766,-0.189541 -0.04501,-0.265702 -0.303864,-0.249733 -0.195549,0.01207 -0.2225,0.0018 -0.235736,-0.09117 -0.01989,-0.1395921 0.189347,-0.2747585 0.415449,-0.2683617 0.133426,0.00376 0.20865,0.043946 0.330204,0.1763336 0.188646,0.2054611 0.206451,0.4161531 0.05947,0.7037231 -0.134261,0.262677 -0.34103,0.379399 -0.67016,0.378311 -0.468849,-0.0014 -0.847551,-0.262095 -0.958023,-0.659107 -0.06622,-0.237993 -0.06302,-0.333059 0.02068,-0.6143695 0.242726,-0.8158068 1.614809,-0.9830184 2.267548,-0.349822 0.314734,0.3053092 0.47412,0.6518205 0.44466,1.2013455 -0.06387,1.19125 -0.836226,2.19686 -2.207272,2.869036 -0.8120969,0.398144 -1.2681853,0.504806 -2.2563197,0.527674 -0.5627128,0.01303 -0.922816,-0.0014 -1.1597676,-0.0465 z"/>
 <circle style="fill:#ffffff" cx="9" cy="5" r="1"/>
 <circle style="fill:#5e5e5e" cx="8.778" cy="4.811" r=".25"/>
 <path style="fill:#ffffff" d="M 12.578192,4.4525108 C 12.669016,4.7780972 12.467862,5.1127592 12.128902,5.2 L 11.8,4.0209476 c 0.33896,-0.08724 0.687368,0.1059768 0.778192,0.4315632 z"/>
</svg>
